pro/src/icons/stroke-virtual-event.svg

<svg width="48" height="48" viewBox="0 0 48 48" fill="none" xmlns="http://www.w3.org/2000/svg">
    <g id="icon">
        <path fill-rule="evenodd" clip-rule="evenodd" d="M29.5475 21.3509L29.5534 21.3531C31.8265 22.2459 33.2372 24.4756 32.7988 26.9674C34.7318 27.7799 36 29.7129 36 31.8447C36 34.6847 33.6672 37 30.9167 37H17.0833C14.264 37 12 34.6813 12 31.8447C12 29.2665 13.767 27.0816 16.234 26.6648C16.5868 24.99 17.6829 23.6516 19.224 23.0311C20.6397 22.4372 22.2428 22.5042 23.5433 23.2525C24.8848 21.132 27.3623 20.5347 29.5475 21.3509ZM31.4963 28.6136L31.4935 28.6131C31.1941 28.5516 30.9795 28.3421 30.857 28.1154C30.7349 27.8897 30.6823 27.6102 30.7343 27.3429L30.7412 27.3072L30.7544 27.2734C31.1098 26.3606 31.0727 25.504 30.7477 24.7998C30.4214 24.0931 29.7886 23.5047 28.8915 23.1668L28.8875 23.1653C28.0216 22.8279 27.1778 22.8354 26.4719 23.1357C25.7708 23.434 25.1748 24.0339 24.8182 24.9437C24.5949 25.605 23.8286 25.8157 23.3024 25.3832L23.2958 25.3778L23.2894 25.372C22.3493 24.527 21.069 24.2947 19.9735 24.7686L19.967 24.7713C18.8007 25.2506 18.0514 26.3201 17.9907 27.565C17.9851 28.1138 17.5537 28.5533 17.0181 28.5533C15.2781 28.5533 13.88 29.9801 13.88 31.8439C13.88 33.6362 15.3387 35.1346 17.0832 35.1346H30.9165C32.6611 35.1346 34.1197 33.6361 34.1197 31.8439C34.1197 30.2304 33.0177 28.9142 31.4963 28.6136Z" fill="currentColor"/>
        <path fill-rule="evenodd" clip-rule="evenodd" d="M28.9688 7H19.0013C19.0013 4.78772 17.2158 3 15.0063 3C12.7967 3 11.0113 4.78772 11.0113 7H7.99501C5.78548 7 4 8.78772 4 11V37C4 40.8623 7.1338 44 10.9913 44H36.9588C40.8612 44 44.0034 40.7959 43.9501 36.8939L44 11.0019L43.9998 10.9819C43.9601 8.77871 42.1595 7 39.9551 7H36.9588C36.9588 4.78772 35.1733 3 32.9638 3C30.7543 3 28.9688 4.78772 28.9688 7ZM30.9663 7C30.9663 5.89228 31.8575 5 32.9638 5C34.0701 5 34.9613 5.89228 34.9613 7H34.2222C33.6706 7 33.2235 7.44772 33.2235 8C33.2235 8.55228 33.6706 9 34.2222 9H39.9551C41.0635 9 41.9775 9.89638 42.0025 11.0089L41.9526 36.8981L41.9527 36.9149C41.9943 39.7089 39.7451 42 36.9588 42H10.9913C8.23699 42 5.9975 39.7577 5.9975 37V17H36.9788C37.5304 17 37.9776 16.5523 37.9776 16C37.9776 15.4477 37.5304 15 36.9788 15H5.9975V11C5.9975 9.89228 6.88867 9 7.99501 9H11.0113C11.0113 11.2123 12.7967 13 15.0063 13C15.5579 13 16.005 12.5523 16.005 12C16.005 11.4477 15.5579 11 15.0063 11C13.8999 11 13.0088 10.1077 13.0088 9V7C13.0088 5.89228 13.8999 5 15.0063 5C16.1126 5 17.0038 5.89228 17.0038 7H16.2447C15.6931 7 15.246 7.44772 15.246 8C15.246 8.55228 15.6931 9 16.2447 9H28.9688C28.9688 11.2123 30.7543 13 32.9638 13C33.5154 13 33.9625 12.5523 33.9625 12C33.9625 11.4477 33.5154 11 32.9638 11C31.8575 11 30.9663 10.1077 30.9663 9V8.20007C30.9794 8.13543 30.9863 8.06852 30.9863 8C30.9863 7.93148 30.9794 7.86457 30.9663 7.79993V7Z" fill="currentColor"/>
    </g>
</svg>

<svg xmlns="http://www.w3.org/2000/svg" width="48" height="48" fill="none"><g id="icon" fill="currentColor" fill-rule="evenodd" clip-rule="evenodd"><path d="m29.548 21.35.005.003c2.273.893 3.684 3.123 3.246 5.614C34.732 27.78 36 29.713 36 31.845 36 34.685 33.667 37 30.917 37H17.083C14.264 37 12 34.681 12 31.845c0-2.578 1.767-4.763 4.234-5.18.353-1.675 1.449-3.013 2.99-3.634 1.416-.594 3.019-.527 4.32.222 1.34-2.121 3.818-2.718 6.003-1.902m1.948 7.264h-.002a.95.95 0 0 1-.637-.499 1.18 1.18 0 0 1-.123-.772l.007-.036.013-.034c.356-.912.319-1.769-.006-2.473-.327-.707-.96-1.295-1.857-1.633l-.003-.002c-.866-.337-1.71-.33-2.416-.03-.701.299-1.297.899-1.654 1.809a.944.944 0 0 1-1.516.44l-.006-.006-.007-.006c-.94-.845-2.22-1.077-3.315-.603l-.007.002a3.16 3.16 0 0 0-1.976 2.794.983.983 0 0 1-.973.988c-1.74 0-3.138 1.427-3.138 3.29 0 1.793 1.459 3.292 3.203 3.292h13.834c1.744 0 3.203-1.499 3.203-3.291 0-1.614-1.102-2.93-2.624-3.23"/><path d="M28.969 7H19c0-2.212-1.785-4-3.995-4a3.993 3.993 0 0 0-3.995 4H7.995A3.993 3.993 0 0 0 4 11v26c0 3.862 3.134 7 6.991 7H36.96c3.902 0 7.044-3.204 6.991-7.106L44 11.002v-.02A4.056 4.056 0 0 0 39.955 7H36.96c0-2.212-1.786-4-3.995-4a3.993 3.993 0 0 0-3.995 4m1.997 0c0-1.108.892-2 1.998-2s1.997.892 1.997 2h-.739a1 1 0 0 0 0 2h5.733c1.108 0 2.023.896 2.047 2.009l-.05 25.89v.016C41.995 39.709 39.746 42 36.96 42H10.99a5 5 0 0 1-4.993-5V17h30.98a1 1 0 0 0 0-2H5.999v-4c0-1.108.89-2 1.997-2h3.016c0 2.212 1.786 4 3.995 4a1 1 0 0 0 0-2 1.995 1.995 0 0 1-1.997-2V7c0-1.108.89-2 1.997-2s1.998.892 1.998 2h-.76a1 1 0 0 0 0 2H28.97c0 2.212 1.785 4 3.995 4a1 1 0 0 0 0-2 1.995 1.995 0 0 1-1.998-2v-.8a1 1 0 0 0 0-.4z"/></g></svg>
